libs/icons/src/svg/phone-portrait.svg

<svg width="16" height="16" viewBox="0 0 16 16" fill="none" xmlns="http://www.w3.org/2000/svg">
<path fill-rule="evenodd" clip-rule="evenodd" d="M4.50002 1.33333C4.39832 1.33333 4.27954 1.37875 4.17678 1.49619C4.07153 1.61648 4.00002 1.79657 4.00002 2V14C4.00002 14.2034 4.07153 14.3835 4.17678 14.5038C4.27954 14.6213 4.39832 14.6667 4.50002 14.6667H11.5C11.6017 14.6667 11.7205 14.6213 11.8233 14.5038C11.9285 14.3835 12 14.2034 12 14V2C12 1.79657 11.9285 1.61648 11.8233 1.49619C11.7205 1.37875 11.6017 1.33333 11.5 1.33333H4.50002ZM3.17334 0.618188C3.50817 0.235536 3.98288 0 4.50002 0H11.5C12.0172 0 12.4919 0.235536 12.8267 0.618188C13.159 0.997997 13.3334 1.49618 13.3334 2V14C13.3334 14.5038 13.159 15.002 12.8267 15.3818C12.4919 15.7645 12.0172 16 11.5 16H4.50002C3.98288 16 3.50816 15.7645 3.17334 15.3818C2.84101 15.002 2.66669 14.5038 2.66669 14V2C2.66669 1.49618 2.84101 0.997997 3.17334 0.618188Z" fill="#202327"/>
<path d="M8.00004 13.3333C8.36823 13.3333 8.66671 13.0349 8.66671 12.6667C8.66671 12.2985 8.36823 12 8.00004 12C7.63185 12 7.33337 12.2985 7.33337 12.6667C7.33337 13.0349 7.63185 13.3333 8.00004 13.3333Z" fill="#202327"/>
</svg>

<svg xmlns="http://www.w3.org/2000/svg" viewBox="0 0 16 16" class="sageicon"><path fill-rule="evenodd" d="M4.5 1.333a.433.433 0 0 0-.323.163A.77.77 0 0 0 4 2v12a.77.77 0 0 0 .177.504.433.433 0 0 0 .323.163h7c.102 0 .22-.046.323-.163A.77.77 0 0 0 12 14V2a.77.77 0 0 0-.177-.504.433.433 0 0 0-.323-.163h-7ZM3.173.618C3.508.236 3.983 0 4.5 0h7c.517 0 .992.236 1.327.618.332.38.506.878.506 1.382v12c0 .504-.174 1.002-.506 1.382-.335.383-.81.618-1.327.618h-7c-.517 0-.992-.236-1.327-.618A2.102 2.102 0 0 1 2.667 14V2c0-.504.174-1.002.506-1.382Z"/><path d="M8 13.333A.667.667 0 1 0 8 12a.667.667 0 0 0 0 1.333Z"/></svg>
